X:0892
T:"The Boy From The Glens"   (jig)  0892  (modified)
C:after Chief   F. O'Neill
N:I deleted one eighth note at end Of second seciton to allow proper scansion and (hopefully) fixed the transposed bar.
B:O'Neill's Music Of Ireland (The 1850) Lyon & Healy, Chicago, 1903 edition
Z:FROM O'NEILL'S TO NOTEWORTHY, FROM NOTEWORTHY TO ABC, MIDI AND .TXT BY VINCE
BRENNAN June 2003 (HTTP://WWW.SOSYOURMOM.COM)
I:abc2nwc
M:6/8
L:1/8
K:D
e|dBA ABA|def dBA|dBA ABA|BdA B2g|
ada gfe|(d/2e/2f)e dBA|dBA eag|fdd d2:|
A|def {a}gfg|agf fef|def gfg|f2d edB|
def {a}gfg|agf fef|dBA B2g|ada gf e|
dBA ABA|def dBA|dBA ABA|BdA B2g|
ada gfe|(d/2e/2f)e dBA|dBA eag|fdd d2|]
